shader_type spatial;

// From Voxel Tools API
uniform int u_transition_mask;

float get_transvoxel_secondary_factor(int idata) {
	int cell_border_mask = idata & 63; // Which sides the cell is touching
	int vertex_border_mask = (idata >> 8) & 63; // Which sides the vertex is touching
	// If the vertex is near a side where there is a low-resolution neighbor,
	// move it to secondary position
	int m = u_transition_mask & cell_border_mask;
	float t = float(m != 0);
	// If the vertex lies on one or more sides, and at least one side has no low-resolution neighbor,
	// don't move the vertex.
	t *= float((vertex_border_mask & ~u_transition_mask) == 0);
	
	// Debugging
	//t *= 0.5 + 0.5 * sin(TIME * 4.0);
	//t *= 2.0;

	return t;
}

vec3 get_transvoxel_position(vec3 vertex_pos, vec4 fdata) {
	int idata = floatBitsToInt(fdata.a);

	// Move vertices to smooth transitions
	float secondary_factor = get_transvoxel_secondary_factor(idata);
	vec3 secondary_position = fdata.xyz;
	vec3 pos = mix(vertex_pos, secondary_position, secondary_factor);

	// If the mesh combines transitions and the vertex belongs to a transition,
	// when that transition isn't active we change the position of the vertices so
	// all triangles will be degenerate and won't be visible.
	// This is an alternative to rendering them separately,
	// which has less draw calls and less mesh resources to create in Godot.
	// Ideally I would tweak the index buffer like LOD does but Godot does not
	// expose anything to use it that way.
	int itransition = (idata >> 16) & 0xff; // Is the vertex on a transition mesh?
	float transition_cull = float(itransition == 0 || (itransition & u_transition_mask) != 0);
	pos *= transition_cull;

	return pos;
}

void vertex() {
	VERTEX = get_transvoxel_position(VERTEX, CUSTOM0);
}
